assets/img/braze_icons/settings-01.svg

<svg fill="none" height="24" viewBox="0 0 24 24" width="24" xmlns="http://www.w3.org/2000/svg"><path clip-rule="evenodd" d="m19.286 15.9606c-.0588-.3244-.0191-.659.114-.9606.1268-.2958.3372-.548.6055-.7257s.5827-.273.9045-.2743h.09c.5304 0 1.0391-.2107 1.4142-.5858s.5858-.8838.5858-1.4142-.2107-1.0391-.5858-1.4142-.8838-.5858-1.4142-.5858h-.17c-.3218-.00128-.6362-.09663-.9045-.27431-.2683-.17767-.4787-.42992-.6055-.72569v-.08c-.1331-.30162-.1728-.63619-.114-.96059.0588-.32439.2135-.62373.444-.85941l.06-.06c.186-.18575.3335-.40632.4341-.64912.1007-.2428.1525-.50305.1525-.76588s-.0518-.52308-.1525-.76588c-.1006-.2428-.2481-.46337-.4341-.64912-.1857-.18595-.4063-.33347-.6491-.43412s-.5031-.15245-.7659-.15245-.5231.0518-.7659.15245-.4634.24817-.6491.43412l-.06.06c-.2357.23054-.535.38519-.8594.444-.3244.05882-.659.01912-.9606-.114-.2958-.12676-.548-.33724-.7257-.60553s-.273-.58268-.2743-.90447v-.09c0-.53043-.2107-1.03914-.5858-1.41421-.3751-.37508-.8838-.58579-1.4142-.58579s-1.0391.21071-1.4142.58579c-.3751.37507-.5858.88378-.5858 1.41421v.17c-.00128.32179-.09663.63618-.27431.90447-.17767.26829-.42992.47877-.72569.60553h-.08c-.30162.13312-.63619.17282-.96059.114-.32439-.05881-.62373-.21346-.85941-.444l-.06-.06c-.18575-.18595-.40632-.33347-.64912-.43412s-.50305-.15245-.76588-.15245-.52308.0518-.76588.15245-.46337.24817-.64912.43412c-.18595.18575-.33347.40632-.43412.64912s-.15245.50305-.15245.76588.0518.52308.15245.76588.24817.46337.43412.64912l.06.06c.23054.23568.38519.53502.444.85941.05882.3244.01912.65897-.114.96059-.11428.31074-.31941.5799-.5887.77251-.2693.19261-.59031.29979-.9213.30749h-.09c-.53043 0-1.03914.2107-1.41421.5858-.37508.3751-.58579.8838-.58579 1.4142s.21071 1.0391.58579 1.4142c.37507.3751.88378.5858 1.41421.5858h.17c.32179.0013.63618.0966.90447.2743s.47877.4299.60553.7257c.13312.3016.17282.6362.114.9606-.05881.3244-.21346.6237-.444.8594l-.06.06c-.18595.1857-.33347.4063-.43412.6491s-.15245.5031-.15245.7659.0518.5231.15245.7659.24817.4634.43412.6491c.18575.186.40632.3335.64912.4341.2428.1007.50305.1525.76588.1525s.52308-.0518.76588-.1525c.2428-.1006.46337-.2481.64912-.4341l.06-.06c.23568-.2305.53502-.3852.85941-.444.3244-.0588.65897-.0191.96059.114.31074.1143.5799.3194.77251.5887s.29979.5903.30749.9213v.09c0 .5304.2107 1.0391.5858 1.4142s.8838.5858 1.4142.5858 1.0391-.2107 1.4142-.5858.5858-.8838.5858-1.4142v-.17c.0013-.3218.0966-.6362.2743-.9045s.4299-.4787.7257-.6055c.3016-.1331.6362-.1728.9606-.114s.6237.2135.8594.444l.06.06c.1857.186.4063.3335.6491.4341.2428.1007.5031.1525.7659.1525s.5231-.0518.7659-.1525c.2428-.1006.4634-.2481.6491-.4341.186-.1857.3335-.4063.4341-.6491.1007-.2428.1525-.5031.1525-.7659s-.0518-.5231-.1525-.7659c-.1006-.2428-.2481-.4634-.4341-.6491l-.06-.06c-.2305-.2357-.3852-.535-.444-.8594zm-4.286-3.9606c0 1.6569-1.3431 3-3 3s-3-1.3431-3-3 1.3431-3 3-3 3 1.3431 3 3z" fill="#801ed7" fill-rule="evenodd"/></svg>

<svg width="24" height="24" viewBox="0 0 24 24" fill="none" xmlns="http://www.w3.org/2000/svg">
<path fill-rule="evenodd" clip-rule="evenodd" d="M19.286 15.9606C19.2272 15.6362 19.2669 15.3016 19.4 15C19.5268 14.7042 19.7372 14.452 20.0055 14.2743C20.2738 14.0966 20.5882 14.0013 20.91 14H21C21.5304 14 22.0391 13.7893 22.4142 13.4142C22.7893 13.0391 23 12.5304 23 12C23 11.4696 22.7893 10.9609 22.4142 10.5858C22.0391 10.2107 21.5304 10 21 10H20.83C20.5082 9.99872 20.1938 9.90337 19.9255 9.72569C19.6572 9.54802 19.4468 9.29577 19.32 9V8.92C19.1869 8.61838 19.1472 8.28381 19.206 7.95941C19.2648 7.63502 19.4195 7.33568 19.65 7.1L19.71 7.04C19.896 6.85425 20.0435 6.63368 20.1441 6.39088C20.2448 6.14808 20.2966 5.88783 20.2966 5.625C20.2966 5.36217 20.2448 5.10192 20.1441 4.85912C20.0435 4.61632 19.896 4.39575 19.71 4.21C19.5243 4.02405 19.3037 3.87653 19.0609 3.77588C18.8181 3.67523 18.5578 3.62343 18.295 3.62343C18.0322 3.62343 17.7719 3.67523 17.5291 3.77588C17.2863 3.87653 17.0657 4.02405 16.88 4.21L16.82 4.27C16.5843 4.50054 16.285 4.65519 15.9606 4.714C15.6362 4.77282 15.3016 4.73312 15 4.6C14.7042 4.47324 14.452 4.26276 14.2743 3.99447C14.0966 3.72618 14.0013 3.41179 14 3.09V3C14 2.46957 13.7893 1.96086 13.4142 1.58579C13.0391 1.21071 12.5304 1 12 1C11.4696 1 10.9609 1.21071 10.5858 1.58579C10.2107 1.96086 10 2.46957 10 3V3.17C9.99872 3.49179 9.90337 3.80618 9.72569 4.07447C9.54802 4.34276 9.29577 4.55324 9 4.68H8.92C8.61838 4.81312 8.28381 4.85282 7.95941 4.794C7.63502 4.73519 7.33568 4.58054 7.1 4.35L7.04 4.29C6.85425 4.10405 6.63368 3.95653 6.39088 3.85588C6.14808 3.75523 5.88783 3.70343 5.625 3.70343C5.36217 3.70343 5.10192 3.75523 4.85912 3.85588C4.61632 3.95653 4.39575 4.10405 4.21 4.29C4.02405 4.47575 3.87653 4.69632 3.77588 4.93912C3.67523 5.18192 3.62343 5.44217 3.62343 5.705C3.62343 5.96783 3.67523 6.22808 3.77588 6.47088C3.87653 6.71368 4.02405 6.93425 4.21 7.12L4.27 7.18C4.50054 7.41568 4.65519 7.71502 4.714 8.03941C4.77282 8.36381 4.73312 8.69838 4.6 9C4.48572 9.31074 4.28059 9.5799 4.0113 9.77251C3.742 9.96512 3.42099 10.0723 3.09 10.08H3C2.46957 10.08 1.96086 10.2907 1.58579 10.6658C1.21071 11.0409 1 11.5496 1 12.08C1 12.6104 1.21071 13.1191 1.58579 13.4942C1.96086 13.8693 2.46957 14.08 3 14.08H3.17C3.49179 14.0813 3.80618 14.1766 4.07447 14.3543C4.34276 14.532 4.55324 14.7842 4.68 15.08C4.81312 15.3816 4.85282 15.7162 4.794 16.0406C4.73519 16.365 4.58054 16.6643 4.35 16.9L4.29 16.96C4.10405 17.1457 3.95653 17.3663 3.85588 17.6091C3.75523 17.8519 3.70343 18.1122 3.70343 18.375C3.70343 18.6378 3.75523 18.8981 3.85588 19.1409C3.95653 19.3837 4.10405 19.6043 4.29 19.79C4.47575 19.976 4.69632 20.1235 4.93912 20.2241C5.18192 20.3248 5.44217 20.3766 5.705 20.3766C5.96783 20.3766 6.22808 20.3248 6.47088 20.2241C6.71368 20.1235 6.93425 19.976 7.12 19.79L7.18 19.73C7.41568 19.4995 7.71502 19.3448 8.03941 19.286C8.36381 19.2272 8.69838 19.2669 9 19.4C9.31074 19.5143 9.5799 19.7194 9.77251 19.9887C9.96512 20.258 10.0723 20.579 10.08 20.91V21C10.08 21.5304 10.2907 22.0391 10.6658 22.4142C11.0409 22.7893 11.5496 23 12.08 23C12.6104 23 13.1191 22.7893 13.4942 22.4142C13.8693 22.0391 14.08 21.5304 14.08 21V20.83C14.0813 20.5082 14.1766 20.1938 14.3543 19.9255C14.532 19.6572 14.7842 19.4468 15.08 19.32C15.3816 19.1869 15.7162 19.1472 16.0406 19.206C16.365 19.2648 16.6643 19.4195 16.9 19.65L16.96 19.71C17.1457 19.896 17.3663 20.0435 17.6091 20.1441C17.8519 20.2448 18.1122 20.2966 18.375 20.2966C18.6378 20.2966 18.8981 20.2448 19.1409 20.1441C19.3837 20.0435 19.6043 19.896 19.79 19.71C19.976 19.5243 20.1235 19.3037 20.2241 19.0609C20.3248 18.8181 20.3766 18.5578 20.3766 18.295C20.3766 18.0322 20.3248 17.7719 20.2241 17.5291C20.1235 17.2863 19.976 17.0657 19.79 16.88L19.73 16.82C19.4995 16.5843 19.3448 16.285 19.286 15.9606ZM15 12C15 13.6569 13.6569 15 12 15C10.3431 15 9 13.6569 9 12C9 10.3431 10.3431 9 12 9C13.6569 9 15 10.3431 15 12Z" fill="#801ED7"/>
</svg>
